packages/core/src/svgs/kar.svg

<svg width="24" height="24" viewBox="0 0 24 24" fill="none" xmlns="http://www.w3.org/2000/svg">
<g clip-path="url(#clip0_31_12247)">
<path d="M0 0H24V24H0V0Z" fill="url(#paint0_linear_31_12247)"/>
<path d="M8.99979 10.2857H10.5212C10.7184 10.2857 11.2969 10.0843 12.0384 9.38143C12.7755 8.67429 14.7512 6.82286 15.6426 6H18.8569L13.7141 10.9286L18.8141 18H16.2855L14.1426 15C14.4169 15.6557 14.5798 17.3229 14.0612 18.8571C14.1898 17.3743 13.3712 15.7457 13.2126 15.5357C13.0712 15.3471 12.3212 13.8471 11.9612 13.1229C11.6355 11.7171 13.1012 10.3071 13.8769 9.78C12.8569 9.12857 11.9484 9.88286 11.6226 10.3371C11.0398 10.26 10.5384 10.6629 10.3584 10.8729L8.66979 13.26C8.28408 13.8171 7.88122 13.8557 7.72693 13.8043C8.04408 14.5543 8.81122 14.1686 9.15408 13.8857C9.23979 14.4514 8.99551 14.7857 8.86265 14.88C9.08186 14.854 9.28754 14.7604 9.45113 14.6122C9.61471 14.4639 9.72808 14.2685 9.7755 14.0529C9.90408 14.2414 10.1184 14.9871 9.94265 16.4314C9.91006 16.7674 9.79005 17.089 9.59455 17.3642C9.39906 17.6394 9.1349 17.8586 8.82836 18L8.80265 17.9957H6.85693V6H8.99979V10.2857ZM10.7012 11.5929C10.7012 11.3443 10.8384 10.8429 11.3998 10.8343C11.3526 11.4086 10.9112 11.58 10.7012 11.5929Z" fill="url(#paint1_linear_31_12247)"/>
</g>
<defs>
<linearGradient id="paint0_linear_31_12247" x1="4.46571" y1="4.16143" x2="29.2071" y2="32.58" gradientUnits="userSpaceOnUse">
<stop stop-color="#1A1E21"/>
<stop offset="1" stop-color="#06060A"/>
</linearGradient>
<linearGradient id="paint1_linear_31_12247" x1="12.8569" y1="6" x2="12.8569" y2="18.8571" gradientUnits="userSpaceOnUse">
<stop stop-color="#FB3D42"/>
<stop offset="1" stop-color="#F01E52"/>
</linearGradient>
<clipPath id="clip0_31_12247">
<rect width="24" height="24" fill="white"/>
</clipPath>
</defs>
</svg>

<svg xmlns="http://www.w3.org/2000/svg" width="24" height="24" fill="none" viewBox="0 0 24 24"><g clip-path="url(#a)"><path fill="url(#b)" d="M0 0h24v24H0z"/><path fill="url(#c)" d="M9 10.286h1.521c.197 0 .776-.202 1.517-.905A384 384 0 0 1 15.643 6h3.214l-5.143 4.929 5.1 7.071h-2.529l-2.142-3c.274.656.437 2.323-.082 3.857.129-1.483-.69-3.111-.848-3.321-.142-.189-.892-1.689-1.252-2.413-.325-1.406 1.14-2.816 1.916-3.343-1.02-.651-1.929.103-2.254.557-.583-.077-1.085.326-1.265.536L8.67 13.26c-.386.557-.789.596-.943.544.317.75 1.084.365 1.427.082.086.565-.158.9-.291.994a1.06 1.06 0 0 0 .912-.827c.13.188.343.934.168 2.378A1.93 1.93 0 0 1 8.828 18l-.025-.004H6.857V6H9zm1.701 1.307c0-.249.137-.75.699-.759-.047.575-.489.746-.699.759"/></g><defs><linearGradient id="b" x1="4.466" x2="29.207" y1="4.161" y2="32.58" gradientUnits="userSpaceOnUse"><stop stop-color="#1A1E21"/><stop offset="1" stop-color="#06060A"/></linearGradient><linearGradient id="c" x1="12.857" x2="12.857" y1="6" y2="18.857" gradientUnits="userSpaceOnUse"><stop stop-color="#FB3D42"/><stop offset="1" stop-color="#F01E52"/></linearGradient><clipPath id="a"><path fill="#fff" d="M0 0h24v24H0z"/></clipPath></defs></svg>
